svg/piwigo.svg

<svg width="137" height="146" viewBox="0 0 137 146" fill="none" xmlns="http://www.w3.org/2000/svg">
<path d="M0 109.649L0 45.5606C0 40.8172 0.934271 36.1203 2.74947 31.738C4.56467 27.3557 7.22525 23.3739 10.5793 20.0199C13.9334 16.6658 17.9152 14.0052 22.2975 12.19C26.6798 10.3748 31.3767 9.44055 36.12 9.44055H121.031L131.4 14.2826L136.33 24.7826V109.649C136.33 114.392 135.396 119.089 133.58 123.472C131.765 127.854 129.104 131.836 125.75 135.19C122.396 138.544 118.414 141.205 114.031 143.02C109.649 144.835 104.952 145.769 100.208 145.769L36.12 145.769C26.5404 145.769 17.3531 141.963 10.5793 135.189C3.80549 128.415 0 119.228 0 109.649H0Z" fill="#FF7700"/>
<path d="M111.36 0C124.886 0 136.309 10.892 136.309 24.418C136.309 37.944 124.886 48.983 111.36 48.983C97.834 48.983 50.319 9.469 51.403 9.463C52.487 9.457 24.003 9.387 60.579 9.463C97.155 9.539 95.619 0.355 111.36 0Z" fill="#FF7700"/>
<path d="M111.901 32.5759C116.627 32.5759 120.458 28.7448 120.458 24.0189C120.458 19.293 116.627 15.4619 111.901 15.4619C107.175 15.4619 103.344 19.293 103.344 24.0189C103.344 28.7448 107.175 32.5759 111.901 32.5759Z" fill="white"/>
<path d="M68.1638 118.031C90.4905 118.031 108.59 99.9314 108.59 77.6047C108.59 55.278 90.4905 37.1787 68.1638 37.1787C45.8371 37.1787 27.7378 55.278 27.7378 77.6047C27.7378 99.9314 45.8371 118.031 68.1638 118.031Z" fill="white"/>
<path d="M68.164 106.229C83.9721 106.229 96.787 93.4144 96.787 77.6064C96.787 61.7984 83.9721 48.9834 68.164 48.9834C52.356 48.9834 39.541 61.7984 39.541 77.6064C39.541 93.4144 52.356 106.229 68.164 106.229Z" fill="#3C3C3C"/>
</svg>

<svg xmlns="http://www.w3.org/2000/svg" width="137" height="146" fill="none"><path fill="#F70" d="M0 109.649V45.561A36.12 36.12 0 0 1 36.12 9.44h84.911l10.369 4.842 4.93 10.5v84.866a36.112 36.112 0 0 1-10.58 25.541 36.113 36.113 0 0 1-25.542 10.579H36.12A36.12 36.12 0 0 1 0 109.649Z"/><path fill="#F70" d="M111.36 0c13.526 0 24.949 10.892 24.949 24.418s-11.423 24.565-24.949 24.565c-13.526 0-61.041-39.514-59.957-39.52 1.084-.006-27.4-.076 9.176 0S95.619.355 111.36 0Z"/><path fill="#fff" d="M111.901 32.576a8.557 8.557 0 1 0 0-17.114 8.557 8.557 0 0 0 0 17.114Zm-43.737 85.455c22.326 0 40.426-18.1 40.426-40.426 0-22.327-18.1-40.426-40.426-40.426-22.327 0-40.426 18.099-40.426 40.426 0 22.326 18.1 40.426 40.426 40.426Z"/><path fill="#3C3C3C" d="M68.164 106.229c15.808 0 28.623-12.815 28.623-28.623 0-15.808-12.815-28.623-28.623-28.623-15.808 0-28.623 12.815-28.623 28.623 0 15.808 12.815 28.623 28.623 28.623Z"/></svg>
